X:348
T:Reel 348
M:4/4
K:Amin
L:1/8
G2|:EA,A,B, C2CD|EA,A,C B,A,G,2|EA,A,B, CDE^F||GEDB, CA,B,2:||2GEDB, B,A,A,2|A2BA A2BA|GEEF G2AG|EAAG A2BA|GEDB, B,A,A,z|A2BG AcBA|GEDC B,CDB,|A,A,B,G, AGFA|GEDB, B,A,A,2|
